!!!OTL: Pochwalmy Pana w liczbie Swietych
**kern
*staff1
=--
*clefC1
*k[b-]
1g
2.f
4e
2f
1g
2f
=-
2g
2b-
2b-
2a
2g
2g
2f
2a
=-
2.g
4f
2e
2d
4e
4f
1g
2f
=-
!!linebreak:original
2.a
4g
1g
2f
1g
2g
=-
!LO:TX:Y=-38:t=P
2g
2f
1g
2f
2a
2b-
2a
=-
2.g
4f
4g
4a
1b-
2a
1b-
=-
!LO:TX:Y=-38:t=P
2b-
4a
4g
1g
2f
0g
=-=
*-
!!title: @{OTL}, @{GTL}, ed. @{ENC}
!!!pag:
!!!GTL: Hymnbook C
!!!EFL: 
!!!YEM: Creative Commons CC/BY/NC/SA 4.0
!!!ENC: Marcin Konik
!!!END: 2015-0m-dd
!!!EED: Marcin Konik
!!!EEV: 
!!!ONB: Encoded in vim by Marcin Konik
!!!CharacterEncoding: utf-8
!!!RDF**kern: l=long note in original notation
!!!RDF**kern: i=editorial accidental
!!muse2ps: z14jc180F
!!!COM: Anonim
!!!CDT: [?]
!!!TXO: Polish
!!!ODT: 
!!!GTL: Hymnbook C
!!!ARL: Opactwo św. Wojciecha, Staniątki 
!!!voices:	1
